www/assets/icons/person_add_alt_1.svg

<svg xmlns="http://www.w3.org/2000/svg" width="24" height="24" viewBox="0 0 24 24" fill='currentColor'><path d="M13 8c0-2.21-1.79-4-4-4S5 5.79 5 8s1.79 4 4 4 4-1.79 4-4m2 2v2h3v3h2v-3h3v-2h-3V7h-2v3zM1 18v2h16v-2c0-2.66-5.33-4-8-4s-8 1.34-8 4"/></svg>

<svg width="24" height="24" viewBox="0 0 24 24" xmlns="http://www.w3.org/2000/svg" fill='currentColor'><path d="M13 8C13 5.79 11.21 4 9 4C6.79 4 5 5.79 5 8C5 10.21 6.79 12 9 12C11.21 12 13 10.21 13 8ZM15 10V12H18V15H20V12H23V10H20V7H18V10H15ZM1 18V20H17V18C17 15.34 11.67 14 9 14C6.33 14 1 15.34 1 18Z"/></svg>
